X: 7
T: Earl's Chair, The
C: Pakie Moloney
Z: Fernando Durbán Galnares
S: https://thesession.org/tunes/221#setting39675
R: reel
M: 4/4
L: 1/8
K: Dmaj
A|"Bm"B2 dB BAFA|B2 dB BAFB|"D"A F (3FGF D F (3FGF|AFdB ADFA|
"Bm"B2 dB BAFA|B2 dB BAFB|"D"AFAB dcdf|"A"edef "D"d3:|
f|"A" edef "D"d2 Bd|"A"edef "D"dBAB|"A" edef "D" d2de|"Bm"fedB "D"ADFA|
"A" e2ef "Bm"d B (3BcB|"G"g B (3BcB defg|"D"afbf afeg|"A"fedB "D"A3:|

